contents/svg/form-cfs-02.svg

<?xml version="1.0" encoding="UTF-8"?>
<svg width="434px" height="189px" viewBox="0 0 434 189" version="1.1" xmlns="http://www.w3.org/2000/svg" xmlns:xlink="http://www.w3.org/1999/xlink">
    <!-- Generator: Sketch 47.1 (45422) - http://www.bohemiancoding.com/sketch -->
    <title>form-cfs-02</title>
    <desc>Created with Sketch.</desc>
    <defs></defs>
    <g stroke="none" stroke-width="1" fill="none" fill-rule="evenodd">
        <g>
            <path d="M431.060783,163.658195 C430.622638,164.283931 430.118535,164.876826 429.548674,165.428125 C421.233603,173.475178 412.853628,181.060186 401.780886,185.425395 C387.224083,191.162695 371.29273,188.926509 361.193504,179.728967 C351.349738,170.763672 347.424813,155.848058 350.425541,138.807888 C351.175998,134.543219 352.214152,130.485929 353.217566,126.562946 C354.769872,120.486164 356.237962,114.747738 356.309147,109.395142 C356.392903,103.080272 353.438481,96.9523203 349.854952,96.0146176 C346.50283,95.1381341 341.32963,98.5372139 338.5445,103.423119 C335.49804,108.790224 334.152362,115.687735 332.726338,122.990063 C332.333267,125.003902 331.940595,127.015054 331.512607,129.00889 C329.368379,139.018064 325.162494,153.377486 313.44519,162.459565 C304.220002,169.612864 291.484209,171.563797 279.378509,167.677293 C267.273504,163.789794 258.054148,154.790261 254.718485,143.602253 C250.977587,131.055641 254.27746,119.188537 257.189622,108.717832 C257.879737,106.237423 258.53133,103.894605 259.071584,101.617634 C261.15037,92.8643229 259.91347,84.5142841 256.25506,82.6079284 C252.6063,80.7068471 245.400453,85.1689022 241.952621,91.4395274 C239.339526,96.213131 237.701009,101.949345 235.964148,108.022918 C234.31966,113.769776 232.621817,119.713519 229.914742,125.635532 C222.516437,141.844043 205.359115,155.635758 186.892721,150.648994 C173.870857,147.135055 164.111339,134.75067 162.029982,119.099281 C160.839129,110.149916 162.096009,101.492698 163.203908,93.8549419 C163.495099,91.8468597 163.787582,89.8411656 164.032509,87.837753 C165.169195,78.5285553 164.514824,72.2409428 161.971228,68.052224 C160.200101,65.1338121 156.617922,63.076241 152.38894,62.5479527 C148.161947,62.0210575 144.183154,63.1342036 141.749474,65.5279123 C137.664916,69.5424944 135.762655,76.6610962 133.749403,84.1986383 C132.943605,87.2147892 132.11083,90.3351033 131.092007,93.4585752 C125.698793,110.00066 111.292638,126.31475 92.4151089,123.041559 C82.8922765,121.390576 75.1082051,115.026855 70.4961947,105.125981 C67.2234282,98.0975926 65.6015416,89.4335072 65.9339586,80.7308924 C66.0296216,78.2122956 66.2059706,75.7012714 66.3770349,73.2740177 C66.9850331,64.6309368 67.5591376,56.468193 64.2495722,51.4911017 C60.9514461,46.5294331 52.1563058,44.7623456 45.4288236,47.7091227 C38.1397807,50.9031557 32.0338613,58.5371314 28.6846854,68.6558762 C25.2328923,79.0778548 24.7475982,91.0625509 24.2797702,102.651773 C24.0069284,109.353139 18.3556213,114.565671 11.652863,114.294818 C4.95179607,114.023668 -0.261034062,108.37067 0.0101162887,101.669603 C0.522066957,89.0201126 1.10290116,74.6842627 5.62745801,61.0194308 C11.1375881,44.3738916 22.0952227,31.4137537 35.6846074,25.4616182 C53.2411322,17.7714331 74.6731725,23.2973525 84.476735,38.0431579 C92.3696781,49.9152034 91.3915387,63.8127408 90.6058963,74.9792821 C90.4419082,77.3180895 90.2853006,79.5256695 90.2043173,81.6527719 C89.8811808,90.1558093 92.9128005,98.4771463 96.5656172,99.1105162 C100.10064,99.723673 105.551025,93.4408903 108.000043,85.9267893 C108.814524,83.4296831 109.528544,80.758454 110.283874,77.9308311 C112.921557,68.0596198 115.910724,56.8733878 124.722441,48.2059799 C132.518315,40.5425913 143.699589,36.9857599 155.398511,38.4466211 C167.09813,39.9064875 177.060476,46.1023725 182.733335,55.4473404 C189.990023,67.4001833 189.295626,81.3392479 188.14171,90.7831538 C187.875765,92.9690296 187.558582,95.1560921 187.241697,97.344846 C186.275112,104.003732 185.360413,110.29421 186.107604,115.896642 C186.844556,121.445944 189.903819,126.304109 193.222807,127.200387 C198.089118,128.514443 204.819171,122.110659 207.822321,115.543489 C209.769453,111.280579 211.148968,106.454173 212.610404,101.345622 C214.637621,94.2581782 216.732326,86.9303741 220.646396,79.7779272 C229.477756,63.6507004 249.893416,51.9047723 267.478634,61.0676397 C281.634156,68.4442688 287.610732,86.5636729 282.703752,107.228228 C282.05718,109.955579 281.31162,112.635857 280.591045,115.225404 C278.360538,123.246839 276.252765,130.821975 277.994832,136.661434 C279.024678,140.113411 282.399483,143.136213 286.804938,144.551586 C291.209101,145.964571 295.715108,145.47262 298.561649,143.264221 C302.696437,140.058705 305.621627,133.909883 307.763464,123.916826 C308.160491,122.068839 308.523196,120.204233 308.887294,118.337637 C310.54241,109.856971 312.418156,100.243932 317.423374,91.4315332 C327.261154,74.0787196 344.327955,69.4614393 356.002877,72.5170355 C368.04421,75.667597 380.877115,88.6532348 380.596204,109.719382 C380.486213,117.96248 378.585898,125.393781 376.748496,132.578553 C375.817152,136.222872 374.937274,139.664535 374.346428,143.019482 C373.185148,149.617651 373.415793,158.007346 377.548217,161.771162 C380.750917,164.688281 387.052705,165.123137 392.873436,162.829789 C399.793701,160.101023 405.928192,154.488506 412.658061,147.974884 C417.478145,143.310033 425.165286,143.436959 429.830834,148.256049 C433.942695,152.506571 434.331199,158.987557 431.060783,163.658195 Z" fill="#6058C5"></path>
            <path d="M431.060783,141.658195 C430.622638,142.283931 430.118535,142.876826 429.548674,143.428125 C421.233603,151.475178 412.853628,159.060186 401.780886,163.425395 C387.224083,169.162695 371.29273,166.926509 361.193504,157.728967 C351.349738,148.763672 347.424813,133.848058 350.425541,116.807888 C351.175998,112.543219 352.214152,108.485929 353.217566,104.562946 C354.769872,98.4861638 356.237962,92.7477377 356.309147,87.3951415 C356.392903,81.0802719 353.438481,74.9523203 349.854952,74.0146176 C346.50283,73.1381341 341.32963,76.5372139 338.5445,81.4231187 C335.49804,86.7902241 334.152362,93.6877353 332.726338,100.990063 C332.333267,103.003902 331.940595,105.015054 331.512607,107.00889 C329.368379,117.018064 325.162494,131.377486 313.44519,140.459565 C304.220002,147.612864 291.484209,149.563797 279.378509,145.677293 C267.273504,141.789794 258.054148,132.790261 254.718485,121.602253 C250.977587,109.055641 254.27746,97.1885373 257.189622,86.7178325 C257.879737,84.2374235 258.53133,81.8946049 259.071584,79.6176337 C261.15037,70.8643229 259.91347,62.5142841 256.25506,60.6079284 C252.6063,58.7068471 245.400453,63.1689022 241.952621,69.4395274 C239.339526,74.213131 237.701009,79.9493445 235.964148,86.0229177 C234.31966,91.7697759 232.621817,97.713519 229.914742,103.635532 C222.516437,119.844043 205.359115,133.635758 186.892721,128.648994 C173.870857,125.135055 164.111339,112.75067 162.029982,97.0992806 C160.839129,88.1499155 162.096009,79.4926979 163.203908,71.8549419 C163.495099,69.8468597 163.787582,67.8411656 164.032509,65.837753 C165.169195,56.5285553 164.514824,50.2409428 161.971228,46.052224 C160.200101,43.1338121 156.617922,41.076241 152.38894,40.5479527 C148.161947,40.0210575 144.183154,41.1342036 141.749474,43.5279123 C137.664916,47.5424944 135.762655,54.6610962 133.749403,62.1986383 C132.943605,65.2147892 132.11083,68.3351033 131.092007,71.4585752 C125.698793,88.0006602 111.292638,104.31475 92.4151089,101.041559 C82.8922765,99.3905759 75.1082051,93.0268549 70.4961947,83.1259805 C67.2234282,76.0975926 65.6015416,67.4335072 65.9339586,58.7308924 C66.0296216,56.2122956 66.2059706,53.7012714 66.3770349,51.2740177 C66.9850331,42.6309368 67.5591376,34.468193 64.2495722,29.4911017 C60.9514461,24.5294331 52.1563058,22.7623456 45.4288236,25.7091227 C38.1397807,28.9031557 32.0338613,36.5371314 28.6846854,46.6558762 C25.2328923,57.0778548 24.7475982,69.0625509 24.2797702,80.6517735 C24.0069284,87.3531386 18.3556213,92.5656705 11.652863,92.2948184 C4.95179607,92.0236681 -0.261034062,86.3706696 0.0101162887,79.6696026 C0.522066957,67.0201126 1.10290116,52.6842627 5.62745801,39.0194308 C11.1375881,22.3738916 22.0952227,9.41375368 35.6846074,3.46161819 C53.2411322,-4.22856686 74.6731725,1.29735247 84.476735,16.0431579 C92.3696781,27.9152034 91.3915387,41.8127408 90.6058963,52.9792821 C90.4419082,55.3180895 90.2853006,57.5256695 90.2043173,59.6527719 C89.8811808,68.1558093 92.9128005,76.4771463 96.5656172,77.1105162 C100.10064,77.723673 105.551025,71.4408903 108.000043,63.9267893 C108.814524,61.4296831 109.528544,58.758454 110.283874,55.9308311 C112.921557,46.0596198 115.910724,34.8733878 124.722441,26.2059799 C132.518315,18.5425913 143.699589,14.9857599 155.398511,16.4466211 C167.09813,17.9064875 177.060476,24.1023725 182.733335,33.4473404 C189.990023,45.4001833 189.295626,59.3392479 188.14171,68.7831538 C187.875765,70.9690296 187.558582,73.1560921 187.241697,75.344846 C186.275112,82.0037315 185.360413,88.2942097 186.107604,93.8966418 C186.844556,99.4459445 189.903819,104.304109 193.222807,105.200387 C198.089118,106.514443 204.819171,100.110659 207.822321,93.543489 C209.769453,89.2805785 211.148968,84.4541725 212.610404,79.3456219 C214.637621,72.2581782 216.732326,64.9303741 220.646396,57.7779272 C229.477756,41.6507004 249.893416,29.9047723 267.478634,39.0676397 C281.634156,46.4442688 287.610732,64.5636729 282.703752,85.2282277 C282.05718,87.955579 281.31162,90.6358574 280.591045,93.2254036 C278.360538,101.246839 276.252765,108.821975 277.994832,114.661434 C279.024678,118.113411 282.399483,121.136213 286.804938,122.551586 C291.209101,123.964571 295.715108,123.47262 298.561649,121.264221 C302.696437,118.058705 305.621627,111.909883 307.763464,101.916826 C308.160491,100.068839 308.523196,98.2042327 308.887294,96.3376367 C310.54241,87.8569712 312.418156,78.243932 317.423374,69.4315332 C327.261154,52.0787196 344.327955,47.4614393 356.002877,50.5170355 C368.04421,53.667597 380.877115,66.6532348 380.596204,87.719382 C380.486213,95.9624796 378.585898,103.393781 376.748496,110.578553 C375.817152,114.222872 374.937274,117.664535 374.346428,121.019482 C373.185148,127.617651 373.415793,136.007346 377.548217,139.771162 C380.750917,142.688281 387.052705,143.123137 392.873436,140.829789 C399.793701,138.101023 405.928192,132.488506 412.658061,125.974884 C417.478145,121.310033 425.165286,121.436959 429.830834,126.256049 C433.942695,130.506571 434.331199,136.987557 431.060783,141.658195 Z" fill="#FFC4BC"></path>
        </g>
    </g>
</svg>

<svg width="434" height="189" xmlns="http://www.w3.org/2000/svg"><g fill="none" fill-rule="evenodd"><path d="M431.06 163.658a12.191 12.191 0 0 1-1.511 1.77c-8.315 8.047-16.695 15.632-27.768 19.997-14.557 5.738-30.488 3.502-40.587-5.696-9.844-8.965-13.77-23.88-10.768-40.921.75-4.265 1.788-8.322 2.792-12.245 1.552-6.077 3.02-11.815 3.091-17.168.084-6.315-2.87-12.443-6.454-13.38-3.352-.877-8.525 2.522-11.31 7.408-3.047 5.367-4.393 12.265-5.819 19.567a329.126 329.126 0 0 1-1.213 6.019c-2.145 10.01-6.35 24.368-18.068 33.45-9.225 7.154-21.96 9.105-34.066 5.218-12.105-3.887-21.325-12.887-24.66-24.075-3.741-12.546-.442-24.413 2.47-34.884.69-2.48 1.342-4.823 1.883-7.1 2.078-8.754.841-17.104-2.817-19.01-3.649-1.901-10.855 2.56-14.302 8.832-2.613 4.773-4.252 10.51-5.989 16.583-1.644 5.747-3.342 11.69-6.05 17.613-7.398 16.208-24.555 30-43.021 25.013-13.022-3.514-22.782-15.898-24.863-31.55-1.19-8.95.066-17.606 1.174-25.244.291-2.008.584-4.014.829-6.017 1.136-9.31.482-15.597-2.062-19.786-1.77-2.918-5.353-4.976-9.582-5.504-4.227-.527-8.206.586-10.64 2.98-4.084 4.014-5.986 11.133-8 18.67-.805 3.017-1.638 6.137-2.657 9.26-5.393 16.543-19.8 32.857-38.677 29.584-9.523-1.651-17.307-8.015-21.919-17.916-3.273-7.028-4.894-15.692-4.562-24.395.096-2.519.272-5.03.443-7.457.608-8.643 1.182-16.806-2.127-21.783-3.299-4.962-12.094-6.729-18.821-3.782-7.29 3.194-13.395 10.828-16.744 20.947-3.452 10.422-3.937 22.407-4.405 33.996-.273 6.701-5.924 11.914-12.627 11.643C4.952 114.024-.261 108.37.01 101.67c.512-12.65 1.093-26.986 5.617-40.65 5.51-16.646 16.468-29.606 30.058-35.558 17.556-7.69 38.988-2.165 48.792 12.581 7.893 11.872 6.915 25.77 6.129 36.936-.164 2.34-.32 4.547-.402 6.674-.323 8.503 2.709 16.824 6.362 17.458 3.535.613 8.985-5.67 11.434-13.184.815-2.497 1.529-5.169 2.284-7.996 2.638-9.871 5.627-21.058 14.438-29.725 7.796-7.663 18.978-11.22 30.677-9.76 11.7 1.46 21.661 7.656 27.334 17.001 7.257 11.953 6.563 25.892 5.409 35.336-.266 2.186-.583 4.373-.9 6.562-.967 6.659-1.882 12.95-1.134 18.552.737 5.549 3.796 10.407 7.115 11.303 4.866 1.314 11.596-5.09 14.6-11.657 1.946-4.262 3.326-9.089 4.787-14.197 2.028-7.088 4.122-14.416 8.036-21.568 8.832-16.127 29.247-27.873 46.833-18.71 14.155 7.376 20.132 25.496 15.225 46.16-.647 2.728-1.392 5.408-2.113 7.997-2.23 8.022-4.338 15.597-2.596 21.436 1.03 3.452 4.404 6.475 8.81 7.89 4.404 1.414 8.91.922 11.757-1.287 4.134-3.205 7.06-9.354 9.201-19.347.397-1.848.76-3.713 1.124-5.58 1.655-8.48 3.531-18.093 8.536-26.905 9.838-17.353 26.905-21.97 38.58-18.915 12.041 3.15 24.874 16.136 24.593 37.202-.11 8.243-2.01 15.675-3.848 22.86-.93 3.644-1.81 7.086-2.402 10.44-1.16 6.599-.93 14.988 3.202 18.752 3.203 2.917 9.505 3.352 15.325 1.059 6.92-2.729 13.055-8.341 19.785-14.855 4.82-4.665 12.507-4.538 17.173.281 4.112 4.25 4.5 10.732 1.23 15.402z" fill="#6058C5"/><path d="M431.06 141.658a12.191 12.191 0 0 1-1.511 1.77c-8.315 8.047-16.695 15.632-27.768 19.997-14.557 5.738-30.488 3.502-40.587-5.696-9.844-8.965-13.77-23.88-10.768-40.921.75-4.265 1.788-8.322 2.792-12.245 1.552-6.077 3.02-11.815 3.091-17.168.084-6.315-2.87-12.443-6.454-13.38-3.352-.877-8.525 2.522-11.31 7.408-3.047 5.367-4.393 12.265-5.819 19.567a329.126 329.126 0 0 1-1.213 6.019c-2.145 10.01-6.35 24.368-18.068 33.45-9.225 7.154-21.96 9.105-34.066 5.218-12.105-3.887-21.325-12.887-24.66-24.075-3.741-12.546-.442-24.413 2.47-34.884.69-2.48 1.342-4.823 1.883-7.1 2.078-8.754.841-17.104-2.817-19.01-3.649-1.901-10.855 2.56-14.302 8.832-2.613 4.773-4.252 10.51-5.989 16.583-1.644 5.747-3.342 11.69-6.05 17.613-7.398 16.208-24.555 30-43.021 25.013-13.022-3.514-22.782-15.898-24.863-31.55-1.19-8.95.066-17.606 1.174-25.244.291-2.008.584-4.014.829-6.017 1.136-9.31.482-15.597-2.062-19.786-1.77-2.918-5.353-4.976-9.582-5.504-4.227-.527-8.206.586-10.64 2.98-4.084 4.014-5.986 11.133-8 18.67-.805 3.017-1.638 6.137-2.657 9.26-5.393 16.543-19.8 32.857-38.677 29.584-9.523-1.651-17.307-8.015-21.919-17.916-3.273-7.028-4.894-15.692-4.562-24.395.096-2.519.272-5.03.443-7.457.608-8.643 1.182-16.806-2.127-21.783-3.299-4.962-12.094-6.729-18.821-3.782-7.29 3.194-13.395 10.828-16.744 20.947-3.452 10.422-3.937 22.407-4.405 33.996-.273 6.701-5.924 11.914-12.627 11.643C4.952 92.024-.261 86.37.01 79.67c.512-12.65 1.093-26.986 5.617-40.65 5.51-16.646 16.468-29.606 30.058-35.558 17.556-7.69 38.988-2.165 48.792 12.581 7.893 11.872 6.915 25.77 6.129 36.936-.164 2.34-.32 4.547-.402 6.674-.323 8.503 2.709 16.824 6.362 17.458 3.535.613 8.985-5.67 11.434-13.184.815-2.497 1.529-5.169 2.284-7.996 2.638-9.871 5.627-21.058 14.438-29.725 7.796-7.663 18.978-11.22 30.677-9.76 11.7 1.46 21.661 7.656 27.334 17.001 7.257 11.953 6.563 25.892 5.409 35.336-.266 2.186-.583 4.373-.9 6.562-.967 6.659-1.882 12.95-1.134 18.552.737 5.549 3.796 10.407 7.115 11.303 4.866 1.314 11.596-5.09 14.6-11.657 1.946-4.262 3.326-9.089 4.787-14.197 2.028-7.088 4.122-14.416 8.036-21.568 8.832-16.127 29.247-27.873 46.833-18.71 14.155 7.376 20.132 25.496 15.225 46.16-.647 2.728-1.392 5.408-2.113 7.997-2.23 8.022-4.338 15.597-2.596 21.436 1.03 3.452 4.404 6.475 8.81 7.89 4.404 1.414 8.91.922 11.757-1.287 4.134-3.205 7.06-9.354 9.201-19.347.397-1.848.76-3.713 1.124-5.58 1.655-8.48 3.531-18.093 8.536-26.905 9.838-17.353 26.905-21.97 38.58-18.915 12.041 3.15 24.874 16.136 24.593 37.202-.11 8.243-2.01 15.675-3.848 22.86-.93 3.644-1.81 7.086-2.402 10.44-1.16 6.599-.93 14.988 3.202 18.752 3.203 2.917 9.505 3.352 15.325 1.059 6.92-2.729 13.055-8.341 19.785-14.855 4.82-4.665 12.507-4.538 17.173.281 4.112 4.25 4.5 10.732 1.23 15.402z" fill="#FFC4BC"/></g></svg>
